X: 196
U:~=!turn!
M:C
L:1/8
K:G
(d/c/) | (B<d)d>g {/g}a(g/f/) Tg2 | (B<G)d>G (F<A) A(d/c/) | B<dd>g {/g}a(g/f/) Tg2 | {AB}c>A {/^c}d(e/=c/) B<G G(d/c/) |
(B<d)d>g {/g}a(g/f/) {/f}g>c | B<Gd>G (F<A) A(B/c/) | d>cTB>A B>G{/G}(F>E) | F<D {/^c}d(e/=c/) B<GG |]


